X: 0
T: Kadril Van Mechelen
C: Trad (Flemish)
R: jig
M: 6/8
L: 1/8
K: Amin
|:"Am" e2d c2d|e2A B2c|"Dm"d2c B2A|"E" e2a ^g2a|
"Am" e2d c2d|e2A B2c|"Dm"dfe "E"dcB|1"Am" A2 a ^g2a:|2"Am" A2 c cBc || 
|:"G" d2g g^fg|"C"e2c cBc|"F"agf edc|"G" B2c cBc|
"G" d2g g^fg|"C"e2c cBc|"Dm"dfe "E"dcB|1"Am" A2 c cBc:|2"Am" A2EA2B || 
K:A
|:"A" c2c BcB | "F#m" A2 A B2 c|"D" d2 c B2 A|"E" G2 E A2 B|
"A" c2c BcB | "F#m" A2 A B2 c|"D" dfe "E" dcB|1 "A" A2 E A2 B :|2 "A" A3 A3|]